X:1
T:Rail Road Polka
T:Rail Road Polka
T:James Buckley
C:James Buckley
L:1/8
M:2/4
K:A
V:1 treble 
V:1
 [A,E]c c/B/A | [A,E]c c/B/A | e[GB] e[GB] | eB/d/ c/B/A | [A,E]c c/B/A | [A,E]c c/B/A | %6
 e[GB]/[Ac]/ e/d/c/B/ | [A,A][A,EAc] [A,A] z :| [EGB](3(E/G/B/ e)e | ^d/e/d/c/ B2 | %10
 B,[FAB] B,[FAB] | E/G/B/e/ B/A/G/A/ | [EGB](3(E/G/B/ e)e | ^dc B z | B^d/c/ B/A/G/F/ | %15
 E/e/E/e/ E/e/E/e/ | [A,E]c c/B/A | [A,E]c c/B/A | e[GB] e[GB] | eB/d/ c/B/A | [A,E]c c/B/A | %21
 [A,E]c c/B/A | eB/c/ e/d/c/B/ | [A,A][A,c] [A,A] || A,/E/ | A/c/e/g/ a(3a/a/a/ | %26
 a/e/c/A/ B B,/E/ | G/B/e/f/ g/g/ (3g/g/g/ | g/e/d/G/ A A,/E/ | A/c/e/g/ a(3a/a/a/ | %30
 a/e/c/A/ B B,/E/ | G/B/e/f/ g/g/ (3g/g/g/ g/e/ (d/B/)A || %32

